Newaita-dark/apps/22/com.github.kmal-kenneth.monilet.svg

<svg height="22" viewBox="0 0 22 22" width="22" xmlns="http://www.w3.org/2000/svg" xmlns:xlink="http://www.w3.org/1999/xlink"><linearGradient id="a" gradientUnits="userSpaceOnUse" x1="10.9151136" x2="10.9151136" y1="19.27333715" y2="20.18293042919"><stop offset="0" stop-opacity=".27451"/><stop offset="1" stop-opacity="0"/></linearGradient><linearGradient id="b"><stop offset="0" stop-opacity=".313726"/><stop offset=".222222" stop-opacity=".27451"/><stop offset="1" stop-opacity="0"/></linearGradient><radialGradient id="c" cx="450.908936" cy="189.579361" gradientTransform="matrix(.00000012 -.0537161 -.0966889 -.00000007 35.839821 43.721791)" gradientUnits="userSpaceOnUse" r="21.166656" xlink:href="#b"/><radialGradient id="d" cx="450.908936" cy="189.579361" gradientTransform="matrix(-.00000012 .0537161 .0966889 .00000007 -14.009609 -5.175142)" gradientUnits="userSpaceOnUse" r="21.166656" xlink:href="#b"/><radialGradient id="e" cx="450.908936" cy="189.579361" gradientTransform="matrix(-.00000012 -.0537161 .0966889 -.00000007 -14.009609 43.721791)" gradientUnits="userSpaceOnUse" r="21.166656" xlink:href="#b"/><radialGradient id="f" cx="450.908936" cy="189.579361" gradientTransform="matrix(.00000012 .0537161 -.0966889 .00000007 35.839819 -5.175142)" gradientUnits="userSpaceOnUse" r="21.166656" xlink:href="#b"/><linearGradient id="g" gradientUnits="userSpaceOnUse" x1="7.27674417081" x2="7.27674417081" y1="19.27333515" y2="1.99106765838"><stop offset="0" stop-color="#424242"/><stop offset="1" stop-color="#616161"/></linearGradient><path d="m4.09375 19.207031h13.644531v1.007813h-13.644531zm0 0" fill="url(#a)"/><path d="m17.738281 19.273438h1.816407v-.910157h-1.816407zm0 0" fill="url(#c)"/><path d="m4.09375 19.273438h-1.820312v.910156h1.820312zm0 0" fill="url(#d)"/><path d="m4.09375 19.273438h-1.820312v-.910157h1.820312zm0 0" fill="url(#e)"/><path d="m17.738281 19.273438h1.816407v.910156h-1.816407zm0 0" fill="url(#f)"/><path d="m3.183594 1.992188h15.464844c.5 0 .90625.40625.90625.910156v15.460937c0 .503907-.40625.910157-.90625.910157h-15.464844c-.503906 0-.910156-.40625-.910156-.910157v-15.460937c0-.503906.40625-.910156.910156-.910156zm0 0" fill="url(#g)"/><path d="m3.183594 1.992188c-.503906 0-.910156.40625-.910156.910156v.113281c0-.503906.40625-.910156.910156-.910156h15.464844c.503906 0 .90625.40625.90625.910156v-.113281c0-.503906-.402344-.910156-.90625-.910156zm0 0" fill="#e6e6e6" fill-opacity=".392157"/><path d="m3.183594 19.273438c-.503906 0-.910156-.40625-.910156-.910157v-.113281c0 .503906.40625.910156.910156.910156h15.464844c.503906 0 .90625-.40625.90625-.910156v.113281c0 .503907-.402344.910157-.90625.910157zm0 0" fill-opacity=".196078"/><path d="m74.083834-168.640791h359.874725c11.635253 0 21.088895 9.453643 21.088895 21.179796v359.783824c0 11.726153-9.453642 21.179796-21.088895 21.179796h-359.874725c-11.726152 0-21.179795-9.453643-21.179795-21.179796v-359.783824c0-11.726153 9.453643-21.179796 21.179795-21.179796zm0 0" fill="none" stroke="#212121" stroke-linecap="round" stroke-width="3" transform="matrix(.0429729 0 0 .0429729 0 9.239163)"/><path d="m10.914062 4.726562c-3.253906 0-5.902343 2.648438-5.902343 5.90625v.113282c.058593-3.207032 2.683593-5.800782 5.902343-5.800782 3.222657 0 5.847657 2.59375 5.90625 5.800782 0-.039063 0-.078125 0-.113282 0-3.257812-2.648437-5.90625-5.90625-5.90625zm-4.097656 6.011719v.113281c0 1.609376.90625 2.980469 2.234375 3.65625.273438.132813.457031.398438.496094.699219.046875-.382812-.152344-.75-.496094-.921875-1.296875-.660156-2.195312-1.980468-2.234375-3.546875zm8.199219 0c-.042969 1.566407-.9375 2.886719-2.234375 3.546875-.34375.171875-.542969.539063-.496094.917969.035156-.300781.222656-.5625.496094-.695313 1.328125-.675781 2.234375-2.046874 2.234375-3.65625 0-.035156 0-.074218 0-.113281zm0 0" fill-opacity=".235294"/><path d="m10.914062 4.726562c-3.253906 0-5.902343 2.648438-5.902343 5.90625 0 2.292969 1.304687 4.289063 3.21875 5.261719.289062.152344.636719.136719.910156-.039062s.429687-.484375.414063-.808594c-.019532-.328125-.210938-.617187-.503907-.761719-1.328125-.675781-2.234375-2.042968-2.234375-3.652344 0-2.289062 1.8125-4.101562 4.097656-4.101562 2.289063 0 4.101563 1.8125 4.101563 4.101562 0 1.609376-.90625 2.976563-2.234375 3.652344-.292969.144532-.484375.433594-.503906.761719-.019532.324219.140625.632813.414062.808594.273438.175781.617188.191406.90625.039062 1.917969-.972656 3.222656-2.96875 3.222656-5.261719 0-3.257812-2.648437-5.90625-5.90625-5.90625zm0 0" fill-opacity=".235294"/><path d="m10.914062 4.726562c-3.253906 0-5.902343 2.648438-5.902343 5.90625 0 2.292969 1.304687 4.289063 3.21875 5.261719.289062.152344.636719.136719.910156-.039062s.429687-.484375.414063-.808594c-.019532-.328125-.210938-.617187-.503907-.761719-1.328125-.675781-2.234375-2.042968-2.234375-3.652344 0-2.289062 1.8125-4.101562 4.097656-4.101562.328126.003906.628907-.164062.792969-.445312.164063-.28125.164063-.628907 0-.910157-.164062-.28125-.464843-.453125-.792969-.449219zm0 0" fill="#26a69a"/><path d="m10.914062 6.5625c-2.226562 0-4.003906 1.71875-4.09375 3.921875-.003906-.019531-.003906-.039063-.003906-.0625v.117187c0 .058594 0 .117188.003906.175782.089844-2.203125 1.867188-3.925782 4.09375-3.925782 2.230469 0 4.007813 1.722657 4.097657 3.925782.003906-.058594.003906-.117188.003906-.175782 0-.039062 0-.078124 0-.117187-.003906.023437-.003906.042969-.003906.0625-.089844-2.203125-1.867188-3.921875-4.097657-3.921875zm-5.902343 4.21875v.109375c0 2.292969 1.304687 4.289063 3.21875 5.261719.300781.15625.660156.132812.933593-.058594.277344-.191406.421876-.519531.382813-.855469-.039063.292969-.21875.550781-.480469.6875-.261718.136719-.574218.136719-.835937 0-1.882813-.957031-3.175781-2.902343-3.21875-5.144531zm11.808593 0c-.042968 2.242188-1.339843 4.1875-3.222656 5.144531-.261718.136719-.574218.136719-.835937 0s-.4375-.390625-.476563-.683593c-.042968.332031.105469.660156.378906.851562.277344.191406.636719.214844.933594.058594 1.917969-.972656 3.222656-2.96875 3.222656-5.261719 0-.039063 0-.074219 0-.109375zm0 0" fill="#fff" fill-opacity=".392157"/><path d="m253.975747-105.010503c-75.720042 0-137.350521 61.630478-137.350521 137.44142 0 53.358541 30.360738 99.808651 74.901939 122.442853 6.72663 3.545116 14.816767 3.181514 21.179795-.909004 6.363029-4.090519 9.999045-11.271651 9.635444-18.816385-.454502-7.635635-4.908622-14.362265-11.726153-17.72558-30.90614-15.725771-51.995035-47.540915-51.995035-84.991884 0-53.26764 42.17779-95.445431 95.354531-95.445431 53.26764 0 95.44543 42.177791 95.44543 95.445431 0 37.450969-21.088895 69.266113-51.995034 84.991884-6.817531 3.363315-11.271651 10.089945-11.726153 17.72558-.454502 7.544734 3.272415 14.725866 9.635443 18.816385 6.363029 4.090518 14.362265 4.45412 21.088895.909004 44.632102-22.634202 74.992839-69.084312 74.992839-122.442853 0-75.810942-61.630478-137.44142-137.44142-137.44142zm0 0" fill="none" stroke="#212121" stroke-linecap="round" stroke-linejoin="round" stroke-width="3" transform="matrix(.0429729 0 0 .0429729 0 9.239163)"/><path d="m10.914062 4.777344c-3.253906 0-5.902343 2.648437-5.902343 5.90625v.109375c.058593-3.203125 2.683593-5.796875 5.902343-5.796875.460938-.003906.851563.335937.910157.789062.03125-.257812-.050781-.515625-.226563-.710937-.171875-.191407-.421875-.300781-.683594-.296875zm-4.097656 6.011718v.113282c0 1.609375.90625 2.980468 2.234375 3.65625.273438.132812.457031.394531.496094.695312.046875-.378906-.152344-.746094-.496094-.917968-1.296875-.660157-2.195312-1.984376-2.234375-3.546876zm0 0" fill="#fff" fill-opacity=".392157"/><path d="m11.824219 5.515625c-.054688.457031-.449219.800781-.910157.792969-2.285156 0-4.097656 1.8125-4.097656 4.101562v.109375c.058594-2.234375 1.851563-3.988281 4.097656-3.988281.261719.003906.511719-.105469.6875-.300781.171876-.195313.253907-.457031.222657-.714844zm-6.8125 5.007813v.109374c0 2.292969 1.304687 4.289063 3.21875 5.261719.300781.15625.660156.136719.933593-.054687.277344-.191406.425782-.523438.382813-.855469-.035156.292969-.214844.550781-.476563.6875-.261718.136719-.578124.136719-.839843 0-1.882813-.957031-3.175781-2.90625-3.21875-5.148437zm0 0" fill-opacity=".235294"/><path d="m253.975747-105.010503c-75.720042 0-137.350521 61.630478-137.350521 137.44142 0 53.358541 30.360738 99.808651 74.901939 122.442853 6.72663 3.545116 14.816767 3.181514 21.179795-.909004 6.363029-4.090519 9.999045-11.271651 9.635444-18.816385-.454502-7.635635-4.908622-14.362265-11.726153-17.72558-30.90614-15.725771-51.995035-47.540915-51.995035-84.991884 0-53.26764 42.17779-95.445431 95.354531-95.445431 7.635634.090901 14.634966-3.817817 18.452783-10.362647 3.817817-6.544829 3.817817-14.634966 0-21.179795-3.817817-6.54483-10.817149-10.544448-18.452783-10.453547zm0 0" fill="none" stroke="#212121" stroke-linecap="round" stroke-linejoin="round" stroke-width="3" transform="matrix(.0429729 0 0 .0429729 0 9.239163)"/></svg>

<?xml version="1.0" encoding="UTF-8"?>
<svg xmlns="http://www.w3.org/2000/svg" xmlns:xlink="http://www.w3.org/1999/xlink" width="22px" height="22px" viewBox="0 0 22 22" version="1.1">
<defs>
<linearGradient id="linear0" gradientUnits="userSpaceOnUse" x1="254" y1="233.5" x2="254" y2="254.666672" gradientTransform="matrix(0.0429729,0,0,0.0429729,-0.00000262285,9.239165)">
<stop offset="0" style="stop-color:rgb(0%,0%,0%);stop-opacity:0.27451;"/>
<stop offset="1" style="stop-color:rgb(0%,0%,0%);stop-opacity:0;"/>
</linearGradient>
<radialGradient id="radial0" gradientUnits="userSpaceOnUse" cx="450.908936" cy="189.579361" fx="450.908936" fy="189.579361" r="21.166656" gradientTransform="matrix(0.000000119742,-0.0537161,-0.0966889,-0.0000000698078,35.839821,43.721791)">
<stop offset="0" style="stop-color:rgb(0%,0%,0%);stop-opacity:0.313726;"/>
<stop offset="0.222222" style="stop-color:rgb(0%,0%,0%);stop-opacity:0.27451;"/>
<stop offset="1" style="stop-color:rgb(0%,0%,0%);stop-opacity:0;"/>
</radialGradient>
<radialGradient id="radial1" gradientUnits="userSpaceOnUse" cx="450.908936" cy="189.579361" fx="450.908936" fy="189.579361" r="21.166656" gradientTransform="matrix(-0.000000119742,0.0537161,0.0966889,0.0000000698078,-14.009609,-5.175142)">
<stop offset="0" style="stop-color:rgb(0%,0%,0%);stop-opacity:0.313726;"/>
<stop offset="0.222222" style="stop-color:rgb(0%,0%,0%);stop-opacity:0.27451;"/>
<stop offset="1" style="stop-color:rgb(0%,0%,0%);stop-opacity:0;"/>
</radialGradient>
<radialGradient id="radial2" gradientUnits="userSpaceOnUse" cx="450.908936" cy="189.579361" fx="450.908936" fy="189.579361" r="21.166656" gradientTransform="matrix(-0.000000119742,-0.0537161,0.0966889,-0.0000000698078,-14.009609,43.721791)">
<stop offset="0" style="stop-color:rgb(0%,0%,0%);stop-opacity:0.313726;"/>
<stop offset="0.222222" style="stop-color:rgb(0%,0%,0%);stop-opacity:0.27451;"/>
<stop offset="1" style="stop-color:rgb(0%,0%,0%);stop-opacity:0;"/>
</radialGradient>
<radialGradient id="radial3" gradientUnits="userSpaceOnUse" cx="450.908936" cy="189.579361" fx="450.908936" fy="189.579361" r="21.166656" gradientTransform="matrix(0.000000119742,0.0537161,-0.0966889,0.0000000698078,35.839819,-5.175142)">
<stop offset="0" style="stop-color:rgb(0%,0%,0%);stop-opacity:0.313726;"/>
<stop offset="0.222222" style="stop-color:rgb(0%,0%,0%);stop-opacity:0.27451;"/>
<stop offset="1" style="stop-color:rgb(0%,0%,0%);stop-opacity:0;"/>
</radialGradient>
<linearGradient id="linear1" gradientUnits="userSpaceOnUse" x1="169.333328" y1="233.5" x2="169.333328" y2="-168.666656" gradientTransform="matrix(0.0429729,0,0,0.0429729,0,9.239163)">
<stop offset="0" style="stop-color:rgb(25.882354%,25.882354%,25.882354%);stop-opacity:1;"/>
<stop offset="1" style="stop-color:rgb(38.039216%,38.039216%,38.039216%);stop-opacity:1;"/>
</linearGradient>
</defs>
<g id="surface1">
<path style=" stroke:none;fill-rule:nonzero;fill:url(#linear0);" d="M 4.09375 19.207031 L 17.738281 19.207031 L 17.738281 20.214844 L 4.09375 20.214844 Z M 4.09375 19.207031 "/>
<path style=" stroke:none;fill-rule:nonzero;fill:url(#radial0);" d="M 17.738281 19.273438 L 19.554688 19.273438 L 19.554688 18.363281 L 17.738281 18.363281 Z M 17.738281 19.273438 "/>
<path style=" stroke:none;fill-rule:nonzero;fill:url(#radial1);" d="M 4.09375 19.273438 L 2.273438 19.273438 L 2.273438 20.183594 L 4.09375 20.183594 Z M 4.09375 19.273438 "/>
<path style=" stroke:none;fill-rule:nonzero;fill:url(#radial2);" d="M 4.09375 19.273438 L 2.273438 19.273438 L 2.273438 18.363281 L 4.09375 18.363281 Z M 4.09375 19.273438 "/>
<path style=" stroke:none;fill-rule:nonzero;fill:url(#radial3);" d="M 17.738281 19.273438 L 19.554688 19.273438 L 19.554688 20.183594 L 17.738281 20.183594 Z M 17.738281 19.273438 "/>
<path style=" stroke:none;fill-rule:nonzero;fill:url(#linear1);" d="M 3.183594 1.992188 L 18.648438 1.992188 C 19.148438 1.992188 19.554688 2.398438 19.554688 2.902344 L 19.554688 18.363281 C 19.554688 18.867188 19.148438 19.273438 18.648438 19.273438 L 3.183594 19.273438 C 2.679688 19.273438 2.273438 18.867188 2.273438 18.363281 L 2.273438 2.902344 C 2.273438 2.398438 2.679688 1.992188 3.183594 1.992188 Z M 3.183594 1.992188 "/>
<path style=" stroke:none;fill-rule:nonzero;fill:rgb(90.196079%,90.196079%,90.196079%);fill-opacity:0.392157;" d="M 3.183594 1.992188 C 2.679688 1.992188 2.273438 2.398438 2.273438 2.902344 L 2.273438 3.015625 C 2.273438 2.511719 2.679688 2.105469 3.183594 2.105469 L 18.648438 2.105469 C 19.152344 2.105469 19.554688 2.511719 19.554688 3.015625 L 19.554688 2.902344 C 19.554688 2.398438 19.152344 1.992188 18.648438 1.992188 Z M 3.183594 1.992188 "/>
<path style=" stroke:none;fill-rule:nonzero;fill:rgb(0%,0%,0%);fill-opacity:0.196078;" d="M 3.183594 19.273438 C 2.679688 19.273438 2.273438 18.867188 2.273438 18.363281 L 2.273438 18.25 C 2.273438 18.753906 2.679688 19.160156 3.183594 19.160156 L 18.648438 19.160156 C 19.152344 19.160156 19.554688 18.753906 19.554688 18.25 L 19.554688 18.363281 C 19.554688 18.867188 19.152344 19.273438 18.648438 19.273438 Z M 3.183594 19.273438 "/>
<path style="fill:none;stroke-width:3;stroke-linecap:round;stroke-linejoin:miter;stroke:rgb(12.941177%,12.941177%,12.941177%);stroke-opacity:1;stroke-miterlimit:4;" d="M 74.083834 -168.640791 L 433.958559 -168.640791 C 445.593812 -168.640791 455.047454 -159.187148 455.047454 -147.460995 L 455.047454 212.322829 C 455.047454 224.048982 445.593812 233.502625 433.958559 233.502625 L 74.083834 233.502625 C 62.357682 233.502625 52.904039 224.048982 52.904039 212.322829 L 52.904039 -147.460995 C 52.904039 -159.187148 62.357682 -168.640791 74.083834 -168.640791 Z M 74.083834 -168.640791 " transform="matrix(0.0429729,0,0,0.0429729,0,9.239163)"/>
<path style=" stroke:none;fill-rule:nonzero;fill:rgb(0%,0%,0%);fill-opacity:0.235294;" d="M 10.914062 4.726562 C 7.660156 4.726562 5.011719 7.375 5.011719 10.632812 C 5.011719 10.667969 5.011719 10.707031 5.011719 10.746094 C 5.070312 7.539062 7.695312 4.945312 10.914062 4.945312 C 14.136719 4.945312 16.761719 7.539062 16.820312 10.746094 C 16.820312 10.707031 16.820312 10.667969 16.820312 10.632812 C 16.820312 7.375 14.171875 4.726562 10.914062 4.726562 Z M 6.816406 10.738281 C 6.816406 10.777344 6.816406 10.816406 6.816406 10.851562 C 6.816406 12.460938 7.722656 13.832031 9.050781 14.507812 C 9.324219 14.640625 9.507812 14.90625 9.546875 15.207031 C 9.59375 14.824219 9.394531 14.457031 9.050781 14.285156 C 7.753906 13.625 6.855469 12.304688 6.816406 10.738281 Z M 15.015625 10.738281 C 14.972656 12.304688 14.078125 13.625 12.78125 14.285156 C 12.4375 14.457031 12.238281 14.824219 12.285156 15.203125 C 12.320312 14.902344 12.507812 14.640625 12.78125 14.507812 C 14.109375 13.832031 15.015625 12.460938 15.015625 10.851562 C 15.015625 10.816406 15.015625 10.777344 15.015625 10.738281 Z M 15.015625 10.738281 "/>
<path style=" stroke:none;fill-rule:nonzero;fill:rgb(0%,0%,0%);fill-opacity:0.235294;" d="M 10.914062 4.726562 C 7.660156 4.726562 5.011719 7.375 5.011719 10.632812 C 5.011719 12.925781 6.316406 14.921875 8.230469 15.894531 C 8.519531 16.046875 8.867188 16.03125 9.140625 15.855469 C 9.414062 15.679688 9.570312 15.371094 9.554688 15.046875 C 9.535156 14.71875 9.34375 14.429688 9.050781 14.285156 C 7.722656 13.609375 6.816406 12.242188 6.816406 10.632812 C 6.816406 8.34375 8.628906 6.53125 10.914062 6.53125 C 13.203125 6.53125 15.015625 8.34375 15.015625 10.632812 C 15.015625 12.242188 14.109375 13.609375 12.78125 14.285156 C 12.488281 14.429688 12.296875 14.71875 12.277344 15.046875 C 12.257812 15.371094 12.417969 15.679688 12.691406 15.855469 C 12.964844 16.03125 13.308594 16.046875 13.597656 15.894531 C 15.515625 14.921875 16.820312 12.925781 16.820312 10.632812 C 16.820312 7.375 14.171875 4.726562 10.914062 4.726562 Z M 10.914062 4.726562 "/>
<path style=" stroke:none;fill-rule:nonzero;fill:rgb(14.901961%,65.098041%,60.392159%);fill-opacity:1;" d="M 10.914062 4.726562 C 7.660156 4.726562 5.011719 7.375 5.011719 10.632812 C 5.011719 12.925781 6.316406 14.921875 8.230469 15.894531 C 8.519531 16.046875 8.867188 16.03125 9.140625 15.855469 C 9.414062 15.679688 9.570312 15.371094 9.554688 15.046875 C 9.535156 14.71875 9.34375 14.429688 9.050781 14.285156 C 7.722656 13.609375 6.816406 12.242188 6.816406 10.632812 C 6.816406 8.34375 8.628906 6.53125 10.914062 6.53125 C 11.242188 6.535156 11.542969 6.367188 11.707031 6.085938 C 11.871094 5.804688 11.871094 5.457031 11.707031 5.175781 C 11.542969 4.894531 11.242188 4.722656 10.914062 4.726562 Z M 10.914062 4.726562 "/>
<path style=" stroke:none;fill-rule:nonzero;fill:rgb(100%,100%,100%);fill-opacity:0.392157;" d="M 10.914062 6.5625 C 8.6875 6.5625 6.910156 8.28125 6.820312 10.484375 C 6.816406 10.464844 6.816406 10.445312 6.816406 10.421875 C 6.816406 10.460938 6.816406 10.5 6.816406 10.539062 C 6.816406 10.597656 6.816406 10.65625 6.820312 10.714844 C 6.910156 8.511719 8.6875 6.789062 10.914062 6.789062 C 13.144531 6.789062 14.921875 8.511719 15.011719 10.714844 C 15.015625 10.65625 15.015625 10.597656 15.015625 10.539062 C 15.015625 10.5 15.015625 10.460938 15.015625 10.421875 C 15.011719 10.445312 15.011719 10.464844 15.011719 10.484375 C 14.921875 8.28125 13.144531 6.5625 10.914062 6.5625 Z M 5.011719 10.78125 C 5.011719 10.816406 5.011719 10.851562 5.011719 10.890625 C 5.011719 13.183594 6.316406 15.179688 8.230469 16.152344 C 8.53125 16.308594 8.890625 16.285156 9.164062 16.09375 C 9.441406 15.902344 9.585938 15.574219 9.546875 15.238281 C 9.507812 15.53125 9.328125 15.789062 9.066406 15.925781 C 8.804688 16.0625 8.492188 16.0625 8.230469 15.925781 C 6.347656 14.96875 5.054688 13.023438 5.011719 10.78125 Z M 16.820312 10.78125 C 16.777344 13.023438 15.480469 14.96875 13.597656 15.925781 C 13.335938 16.0625 13.023438 16.0625 12.761719 15.925781 C 12.5 15.789062 12.324219 15.535156 12.285156 15.242188 C 12.242188 15.574219 12.390625 15.902344 12.664062 16.09375 C 12.941406 16.285156 13.300781 16.308594 13.597656 16.152344 C 15.515625 15.179688 16.820312 13.183594 16.820312 10.890625 C 16.820312 10.851562 16.820312 10.816406 16.820312 10.78125 Z M 16.820312 10.78125 "/>
<path style="fill:none;stroke-width:3;stroke-linecap:round;stroke-linejoin:round;stroke:rgb(12.941177%,12.941177%,12.941177%);stroke-opacity:1;stroke-miterlimit:4;" d="M 253.975747 -105.010503 C 178.255705 -105.010503 116.625226 -43.380025 116.625226 32.430917 C 116.625226 85.789458 146.985964 132.239568 191.527165 154.87377 C 198.253795 158.418886 206.343932 158.055284 212.70696 153.964766 C 219.069989 149.874247 222.706005 142.693115 222.342404 135.148381 C 221.887902 127.512746 217.433782 120.786116 210.616251 117.422801 C 179.710111 101.69703 158.621216 69.881886 158.621216 32.430917 C 158.621216 -20.836723 200.799006 -63.014514 253.975747 -63.014514 C 307.243387 -63.014514 349.421177 -20.836723 349.421177 32.430917 C 349.421177 69.881886 328.332282 101.69703 297.426143 117.422801 C 290.608612 120.786116 286.154492 127.512746 285.69999 135.148381 C 285.245488 142.693115 288.972405 149.874247 295.335433 153.964766 C 301.698462 158.055284 309.697698 158.418886 316.424328 154.87377 C 361.05643 132.239568 391.417167 85.789458 391.417167 32.430917 C 391.417167 -43.380025 329.786689 -105.010503 253.975747 -105.010503 Z M 253.975747 -105.010503 " transform="matrix(0.0429729,0,0,0.0429729,0,9.239163)"/>
<path style=" stroke:none;fill-rule:nonzero;fill:rgb(100%,100%,100%);fill-opacity:0.392157;" d="M 10.914062 4.777344 C 7.660156 4.777344 5.011719 7.425781 5.011719 10.683594 C 5.011719 10.71875 5.011719 10.757812 5.011719 10.792969 C 5.070312 7.589844 7.695312 4.996094 10.914062 4.996094 C 11.375 4.992188 11.765625 5.332031 11.824219 5.785156 C 11.855469 5.527344 11.773438 5.269531 11.597656 5.074219 C 11.425781 4.882812 11.175781 4.773438 10.914062 4.777344 Z M 6.816406 10.789062 C 6.816406 10.828125 6.816406 10.863281 6.816406 10.902344 C 6.816406 12.511719 7.722656 13.882812 9.050781 14.558594 C 9.324219 14.691406 9.507812 14.953125 9.546875 15.253906 C 9.59375 14.875 9.394531 14.507812 9.050781 14.335938 C 7.753906 13.675781 6.855469 12.351562 6.816406 10.789062 Z M 6.816406 10.789062 "/>
<path style=" stroke:none;fill-rule:nonzero;fill:rgb(0%,0%,0%);fill-opacity:0.235294;" d="M 11.824219 5.515625 C 11.769531 5.972656 11.375 6.316406 10.914062 6.308594 C 8.628906 6.308594 6.816406 8.121094 6.816406 10.410156 C 6.816406 10.445312 6.816406 10.480469 6.816406 10.519531 C 6.875 8.285156 8.667969 6.53125 10.914062 6.53125 C 11.175781 6.535156 11.425781 6.425781 11.601562 6.230469 C 11.773438 6.035156 11.855469 5.773438 11.824219 5.515625 Z M 5.011719 10.523438 C 5.011719 10.558594 5.011719 10.59375 5.011719 10.632812 C 5.011719 12.925781 6.316406 14.921875 8.230469 15.894531 C 8.53125 16.050781 8.890625 16.03125 9.164062 15.839844 C 9.441406 15.648438 9.589844 15.316406 9.546875 14.984375 C 9.511719 15.277344 9.332031 15.535156 9.070312 15.671875 C 8.808594 15.808594 8.492188 15.808594 8.230469 15.671875 C 6.347656 14.714844 5.054688 12.765625 5.011719 10.523438 Z M 5.011719 10.523438 "/>
<path style="fill:none;stroke-width:3;stroke-linecap:round;stroke-linejoin:round;stroke:rgb(12.941177%,12.941177%,12.941177%);stroke-opacity:1;stroke-miterlimit:4;" d="M 253.975747 -105.010503 C 178.255705 -105.010503 116.625226 -43.380025 116.625226 32.430917 C 116.625226 85.789458 146.985964 132.239568 191.527165 154.87377 C 198.253795 158.418886 206.343932 158.055284 212.70696 153.964766 C 219.069989 149.874247 222.706005 142.693115 222.342404 135.148381 C 221.887902 127.512746 217.433782 120.786116 210.616251 117.422801 C 179.710111 101.69703 158.621216 69.881886 158.621216 32.430917 C 158.621216 -20.836723 200.799006 -63.014514 253.975747 -63.014514 C 261.611381 -62.923613 268.610713 -66.832331 272.42853 -73.377161 C 276.246347 -79.92199 276.246347 -88.012127 272.42853 -94.556956 C 268.610713 -101.101786 261.611381 -105.101404 253.975747 -105.010503 Z M 253.975747 -105.010503 " transform="matrix(0.0429729,0,0,0.0429729,0,9.239163)"/>
</g>
</svg>
